X: 37
T: Missa Ma bouche rit / Sanctus
N: Derived from Mar1010d-Missa_Ma_bouche_rit-Sanctus.krn
C: Johannes Martini
%%abc-version 2.0
%%abcx-abcm2ps-target-version 5.9.1 (29 Sep 2008)
%%abc-creator hum2abc beta
%%abcx-conversion-date 2019/02/17 07:19:41
%%abc-edited-by Jesse Rodin
%%abc-edited-by Chris Gage 10-22-2014
%%abcx-initial-encoding-date 2015/03/07/
%%humdrum-veritas 958763679
%%humdrum-veritas-data 2219679866
%%linebreak <none>
%%barnumbers 0
L: 1/4
M: 4/2
Q: 1/2=120
%%staves [1 2 3 4]
V: 1 clef=treble
V: 2 clef=treble-8
V: 3 clef=treble-8
V: 4 clef=bass
K: C
[V:1] A8 | 
[V:2] A4c4- | 
[V:3] z8 | 
[V:4] A,8 | 
[V:1] E4A4 | 
[V:2] c2A2c2d2 | 
[V:3] A8 | 
[V:4] C8 | 
[V:1] G4c4 | 
[V:2] e6f2 | 
[V:3] E4A4 | 
[V:4] B,2G,4F,2 | 
[V:1] B4c2d2- | 
[V:2] d2e4f2 | 
[V:3] G6F2 | 
[V:4] G,4E,2D,2 | 
[V:1] d2G2A3G | 
[V:2] g2e2f2d2 | 
[V:3] E4D4 | 
[V:4] G,4F,4 | 
[V:1] B4E4 | 
[V:2] e4c2BA | 
[V:3] G4A4 | 
[V:4] E,4z4 | 
[V:1] G4A4 | 
[V:2] G4z4 | 
[V:3] B2c4BA | 
[V:4] E,4F,4 | 
[V:1] B2c2d2B2- | 
[V:2] g4d2g2- | 
[V:3] G4z4 | 
[V:4] E,4B,4 | 
[V:1] BAA2B3G | 
[V:2] gfe4d2 | 
[V:3] z8 | 
[V:4] C4B,4 | 
[V:1] G3EA2A2- | 
[V:2] e4c2A2 | 
[V:3] z8 | 
[V:4] E,4F,4 | 
[V:1] A2^G2A4 | 
[V:2] B4A2A2- | 
[V:3] e8 | 
[V:4] E,4A,,4 | 
[V:1] B4A4 | 
[V:2] A2G2A2c2- | 
[V:3] d4c4 | 
[V:4] z4A,4- | 
[V:1] c6A2 | 
[V:2] cde2f4 | 
[V:3] A8 | 
[V:4] A,2C6 | 
[V:1] B4c4 | 
[V:2] g4e4 | 
[V:3] G4A4 | 
[V:4] D4C4 | 
[V:1] d8 | 
[V:2] g8- | 
[V:3] B8 | 
[V:4] G,8 | 
[V:1] e8 | 
[V:2] g8 | 
[V:3] c8 | 
[V:4] C,8 | 
[V:1] d4B4 | 
[V:2] f4g4- | 
[V:3] A4G4 | 
[V:4] D,4E,4 | 
[V:1] c4A4- | 
[V:2] g2e2d2f2- | 
[V:3] E4F4 | 
[V:4] C,4D,4 | 
[V:1] A2B2A2GF | 
[V:2] fedcB3A | 
[V:3] D8 | 
[V:4] F,8 | 
[V:1] E2c2d2e2- | 
[V:2] c2e2f2g2- | 
[V:3] C4z4 | 
[V:4] G,4F,2E,2 | 
[V:1] edc4B2 | 
[V:2] g2e2d4 | 
[V:3] z8 | 
[V:4] C,4G,4 | 
[V:1] c2z2A4 | 
[V:2] c4e2f2- | 
[V:3] e4c2d2- | 
[V:4] C,4z4 | 
[V:1] F2G2C4 | 
[V:2] fed2e2c2- | 
[V:3] d2B2A4 | 
[V:4] z8 | 
[V:1] D4C4 | 
[V:2] c2B2c4 | 
[V:3] G4z2G2 | 
[V:4] z4C,4- | 
[V:1] z4G3A | 
[V:2] A2G4g2- | 
[V:3] c3de4 | 
[V:4] C,4C,4 | 
[V:1] B2ABc4 | 
[V:2] gfg2a4 | 
[V:3] d3cA4 | 
[V:4] G,4F,4 | 
[V:1] B2G4A2- | 
[V:2] d2e2g2f2- | 
[V:3] G4c4- | 
[V:4] G,2E,4F,2- | 
[V:1] A2G4^F2 | 
[V:2] fed3cd2 | 
[V:3] c2B2A4 | 
[V:4] F,2G,2D,4 | 
[V:1] G8 | 
[V:2] B4z4 | 
[V:3] G8 | 
[V:4] z2D4B,2 | 
[V:1] z8 | 
[V:2] e4f4 | 
[V:3] z8 | 
[V:4] C2A,4D2- | 
[V:1] z8 | 
[V:2] g2g4^f2 | 
[V:3] B4c4 | 
[V:4] D2G,2A,4 | 
[V:1] z4E4 | 
[V:2] g4G4 | 
[V:3] d2d4^c2 | 
[V:4] G,2F,2E,4 | 
[V:1] F4G2G2- | 
[V:2] A2B4c2 | 
[V:3] d4z2c2 | 
[V:4] D,4E,4 | 
[V:1] G2F2G2z2 | 
[V:2] B2A2c4 | 
[V:3] d2f2e4 | 
[V:4] D,4C,4 | 
[V:1] d3cBAA2- | 
[V:2] B3cd2f2 | 
[V:3] d6c2 | 
[V:4] z2G,4A,2 | 
[V:1] A2G2A4 | 
[V:2] e4d2c2 | 
[V:3] B4A4 | 
[V:4] E,4F,4 | 
[V:1] z8 | 
[V:2] g4a4 | 
[V:3] E4F4 | 
[V:4] G,3F,D,4 | 
[V:1] z8 | 
[V:2] g2g3fe2 | 
[V:3] G3AB2c2- | 
[V:4] E,4D,2C,2 | 
[V:1] z4E2F2 | 
[V:2] d4c4 | 
[V:3] c2B2c4 | 
[V:4] G,4C,4 | 
[V:1] G3AB2c2- | 
[V:2] z4g4- | 
[V:3] e8 | 
[V:4] C8 | 
[V:1] c2B2A2GF | 
[V:2] g4f2a2- | 
[V:3] d8 | 
[V:4] G,4D,4 | 
[V:1] E2D2F4 | 
[V:2] a2d4a2- | 
[V:3] c2B2A3B | 
[V:4] z2G,2F,2D,2 | 
[V:1] E4A,2C2 | 
[V:2] a2g2a4 | 
[V:3] c4F4 | 
[V:4] C,4C2A,2 | 
[V:1] B,2E4D2 | 
[V:2] g2e2f4 | 
[V:3] G2A4B2 | 
[V:4] B,2C2F,2E,D, | 
[V:1] E8 ||  
[V:2] e8 ||  
[V:3] c8 ||  
[V:4] C,8 ||  
[V:1]  [K:C] [K:clef=treble][M:4/2]z8 | 
[V:2]  [K:C] [K:clef=treble-8][M:4/2]A6G2 | 
[V:3]  [K:C] [K:clef=treble-8][M:4/2]z8 | 
[V:4]  [K:C] [K:clef=bass][M:4/2]z8 | 
[V:1] A6G2 | 
[V:2] A2c2B4 | 
[V:3] z8 | 
[V:4] z8 | 
[V:1] A2c2B4 | 
[V:2] A4z2d2- | 
[V:3] z8 | 
[V:4] z8 | 
[V:1] A4z2G2 | 
[V:2] d2c2e4 | 
[V:3] z8 | 
[V:4] z8 | 
[V:1] A2c2B2d2- | 
[V:2] f4g4- | 
[V:3] z8 | 
[V:4] z8 | 
[V:1] dcBAc2BA | 
[V:2] g4e4- | 
[V:3] z8 | 
[V:4] z8 | 
[V:1] G2c4B2- | 
[V:2] e2A4G2 | 
[V:3] z8 | 
[V:4] z8 | 
[V:1] BAA4G2 | 
[V:2] c4B4 | 
[V:3] z8 | 
[V:4] z8 | 
[V:1] A2c4B2 | 
[V:2] A4e4 | 
[V:3] z8 | 
[V:4] z8 | 
[V:1] A2GFE2B2 | 
[V:2] f4g4 | 
[V:3] z8 | 
[V:4] z8 | 
[V:1] c2e3dc2- | 
[V:2] a2g3fe2 | 
[V:3] z8 | 
[V:4] z8 | 
[V:1] c2B2c4 | 
[V:2] d4c4 | 
[V:3] z8 | 
[V:4] z8 | 
[V:1] C2D2E3F | 
[V:2] z8 | 
[V:3] z8 | 
[V:4] A,2B,2C4- | 
[V:1] G2A4G2 | 
[V:2] z8 | 
[V:3] z8 | 
[V:4] C4B,4 | 
[V:1] A2G2E2G2- | 
[V:2] z8 | 
[V:3] z8 | 
[V:4] A,2C4B,2 | 
[V:1] GEF2G3C | 
[V:2] z8 | 
[V:3] z8 | 
[V:4] G,2A,2B,2E,2- | 
[V:1] C2D2B,2E2- | 
[V:2] z8 | 
[V:3] z8 | 
[V:4] E,2D,2G,4 | 
[V:1] E2D2E4 | 
[V:2] z8 | 
[V:3] z8 | 
[V:4] F,4E,4 | 
[V:1] z2c2B2e2- | 
[V:2] e4g4- | 
[V:3] z8 | 
[V:4] z8 | 
[V:1] edB2A2c2- | 
[V:2] g4a4 | 
[V:3] z8 | 
[V:4] z8 | 
[V:1] cBG2A2B2 | 
[V:2] A2B2c2d2 | 
[V:3] z8 | 
[V:4] z8 | 
[V:1] c4B4 | 
[V:2] A2e4d2 | 
[V:3] z8 | 
[V:4] z8 | 
[V:1] E8 ||  
[V:2] e8 ||  
[V:3] z8 ||  
[V:4] z8 ||  
[V:1]  [K:C] [K:clef=treble][M:3/1]z12 | 
[V:2]  [K:C] [K:clef=treble-8][M:3/1]d4g2a2f3e | 
[V:3]  [K:C] [K:clef=treble-8][M:3/1]B4B2c4c2 | 
[V:4]  [K:C] [K:clef=bass][M:3/1]G,4G,2F,2A,4 | 
[V:1] B4B2c3Bc2 | 
[V:2] g4d2f2e4 | 
[V:3] d3cB2A3GA2 | 
[V:4] G,6z6 | 
[V:1] d4d2B4c2 | 
[V:2] d6z6 | 
[V:3] D4z2G4A2 | 
[V:4] D6E6 | 
[V:1] d3GA2c4B2 | 
[V:2] g4e2f2g4 | 
[V:3] B4c4G4 | 
[V:4] D4E2C2D4 | 
[V:1] c8d4 | 
[V:2] e4A2c2B3A | 
[V:3] z12 | 
[V:4] C4F,2E,2D,4 | 
[V:1] G6A4G2 | 
[V:2] c3de2f2d2e2 | 
[V:3] c4c2F4E2 | 
[V:4] C,6C4G,2 | 
[V:1] F4D2E4C2 | 
[V:2] c3AB2c4G2- | 
[V:3] F2D4C6 | 
[V:4] A,2F,3E,G,6 | 
[V:1] E2F2G4E4 | 
[V:2] G2A2G2B2G3F | 
[V:3] c4B4c4 | 
[V:4] C,4E,8 | 
[V:1] F4D4G4 | 
[V:2] A4B4e4 | 
[V:3] d8B4 | 
[V:4] D,6G,4E,2 | 
[V:1] E2A3GG4^F2 | 
[V:2] g2f4e2d4 | 
[V:3] c4B2G2A4 | 
[V:4] C,2F,4G,2D,4 | 
[V:1] G4E2C2F2D2 | 
[V:2] B4e4f4 | 
[V:3] G4c2c3AB2 | 
[V:4] E,4C,4D,4 | 
[V:1] E4A,4z4 | 
[V:2] g4a4d4 | 
[V:3] c6d4B2 | 
[V:4] C,4F,4G,4 | 
[V:1] A3Bc2d2A2c2- | 
[V:2] f4g2f3de2 | 
[V:3] c2d2e2A6 | 
[V:4] F,4E,2D,4A,2- | 
[V:1] c2B4A4c2- | 
[V:2] a4^g2a4=g2 | 
[V:3] z4z2A6- | 
[V:4] A,2E4F4E2- | 
[V:1] c2c4B4c2 | 
[V:2] e2f4g4f2 | 
[V:3] A2A4G4A2 | 
[V:4] E2C2D2D4z2 | 
[V:1] d4d2c2A4 | 
[V:2] g2d4A6 | 
[V:3] G4B2c2d4 | 
[V:4] D2B,2G,2A,2F,4 | 
[V:1] G3AB2c4A2 | 
[V:2] B4B2A2e2f2 | 
[V:3] e6e4c2 | 
[V:4] E,3F,G,2A,2E,2A,2 | 
[V:1] B2c3BA4^G2 | 
[V:2] g4f2d2e4 | 
[V:3] d2e2A4B4 | 
[V:4] G,2E,2F,4E,4 | 
[V:1] A12 ||  
[V:2] c12 ||  
[V:3] A12 ||  
[V:4] A,,12 ||  
[V:1]  [K:C] [K:clef=treble][M:2/1]E6F2 | 
[V:2]  [K:C] [K:clef=treble-8][M:2/1]e6dc | 
[V:3]  [K:C] [K:clef=treble-8][M:2/1]z8 | 
[V:4]  [K:C] [K:clef=bass][M:2/1]z8 | 
[V:1] G4A2c2 | 
[V:2] B2c3BA2- | 
[V:3] z8 | 
[V:4] z8 | 
[V:1] B4E2F2 | 
[V:2] A2G2c2d2 | 
[V:3] z8 | 
[V:4] z8 | 
[V:1] G2E4D2 | 
[V:2] e4f4 | 
[V:3] z8 | 
[V:4] z8 | 
[V:1] G3AB2c2- | 
[V:2] e8 | 
[V:3] z8 | 
[V:4] z8 | 
[V:1] cBA4^G2 | 
[V:2] z8 | 
[V:3] z8 | 
[V:4] A,4B,4 | 
[V:1] A2c2B2e2- | 
[V:2] z8 | 
[V:3] z8 | 
[V:4] A,4G,4 | 
[V:1] e2d2B2c2- | 
[V:2] z8 | 
[V:3] z8 | 
[V:4] C2D2E4 | 
[V:1] c2A2G4- | 
[V:2] z8 | 
[V:3] z8 | 
[V:4] A,2C4B,2 | 
[V:1] G4z4 | 
[V:2] z4f4 | 
[V:3] z8 | 
[V:4] C2E4D2 | 
[V:1] z8 | 
[V:2] e4f2g2 | 
[V:3] z8 | 
[V:4] E2A,4G,2 | 
[V:1] z8 | 
[V:2] c2e4d2 | 
[V:3] z8 | 
[V:4] A,2E,2F,4 | 
[V:1] G8 | 
[V:2] e2dcB2E2 | 
[V:3] z8 | 
[V:4] E,8 | 
[V:1] G8 | 
[V:2] B2c2B4 | 
[V:3] z8 | 
[V:4] z8 | 
[V:1] A8 | 
[V:2] z8 | 
[V:3] A6c2- | 
[V:4] z4A,4 | 
[V:1] z8 | 
[V:2] z8 | 
[V:3] c2B2A3G | 
[V:4] G,4A,2C2- | 
[V:1] z8 | 
[V:2] z8 | 
[V:3] E3FG2A2- | 
[V:4] CDE4C2 | 
[V:1] z8 | 
[V:2] z8 | 
[V:3] A2G2B3c | 
[V:4] B,4z2E,2 | 
[V:1] z8 | 
[V:2] z8 | 
[V:3] d2e4A2 | 
[V:4] F,2E,2F,4 | 
[V:1] z8 | 
[V:2] z8 | 
[V:3] G2c3BA2 | 
[V:4] E,3F,G,2A,2- | 
[V:1] z8 | 
[V:2] z8 | 
[V:3] B4A4 | 
[V:4] A,2^G,2A,4 | 
[V:1] c8 | 
[V:2] e2f2e2a2- | 
[V:3] z8 | 
[V:4] z8 | 
[V:1] B4A4 | 
[V:2] a2g2a2gf | 
[V:3] z8 | 
[V:4] z8 | 
[V:1] z2e4d2 | 
[V:2] e2A2c2B2 | 
[V:3] z8 | 
[V:4] z8 | 
[V:1] c2B2A2c2- | 
[V:2] e2d2f4 | 
[V:3] z8 | 
[V:4] z8 | 
[V:1] c2BAG2c2- | 
[V:2] e6A2 | 
[V:3] z8 | 
[V:4] z8 | 
[V:1] cBA4^G2 | 
[V:2] c2d2B4 | 
[V:3] z8 | 
[V:4] z8 | 
[V:1] A8 ||  
[V:2] A8 ||  
[V:3] z8 ||  
[V:4] A,8 ||  



